img/check-complete.svg

<svg width="150" height="151" viewBox="0 0 150 151" fill="none" xmlns="http://www.w3.org/2000/svg">
<circle cx="75" cy="75.5" r="75" fill="white" fill-opacity="0.3"/>
<circle cx="75.0065" cy="75.5002" r="54.1667" fill="white" fill-opacity="0.3"/>
<path fill-rule="evenodd" clip-rule="evenodd" d="M75.0013 108.834C93.4108 108.834 108.335 93.9098 108.335 75.5003C108.335 57.0908 93.4108 42.167 75.0013 42.167C56.5918 42.167 41.668 57.0908 41.668 75.5003C41.668 93.9098 56.5918 108.834 75.0013 108.834ZM90.085 66.7874C88.983 65.7032 87.2153 65.7028 86.1127 66.7864L74.1487 78.5453C72.981 79.6929 71.1089 79.6925 69.9419 78.5443L67.709 76.3476C66.6074 75.264 64.8413 75.2608 63.7359 76.3406C62.599 77.4512 62.5958 79.2789 63.7287 80.3935L69.9404 86.5044C71.1079 87.653 72.9808 87.653 74.1482 86.5044L90.085 70.8261C91.2132 69.7162 91.2132 67.8973 90.085 66.7874Z" fill="white"/>
</svg>

<svg xmlns="http://www.w3.org/2000/svg" width="150" height="151" fill="none"><circle cx="75" cy="75.5" r="75" fill="#fff" fill-opacity=".3"/><circle cx="75.007" cy="75.5" r="54.167" fill="#fff" fill-opacity=".3"/><path fill="#fff" fill-rule="evenodd" d="M75.001 108.834c18.41 0 33.334-14.924 33.334-33.334S93.411 42.167 75.001 42.167 41.668 57.091 41.668 75.5c0 18.41 14.924 33.334 33.333 33.334m15.084-42.047a2.833 2.833 0 0 0-3.972 0L74.149 78.544a3 3 0 0 1-4.207 0l-2.233-2.197a2.838 2.838 0 0 0-3.98 4.046l6.211 6.11a3 3 0 0 0 4.208 0l15.937-15.678a2.833 2.833 0 0 0 0-4.039" clip-rule="evenodd"/></svg>
